X: 40785
T: Tower Hill
R: jig
M: 6/8
K: Gmajor
|:GDG BAG|cBA GEG|d2 d BAG|ABA GDE|
GDG BAG|cBA GEG|Bdc BGA|BAF G3:|
|:Bdd gdB|cea gfd|Bdg gab|agf edA|
Bdd gdB|cea gfd|Bdc BGA|BAF G3:|

